assets/images/arrow-left.svg

<svg enable-background="new 0 0 30 29.3" viewBox="0 0 30 29.3" xmlns="http://www.w3.org/2000/svg"><path d="m13.9 28c.2.2.5.3.8.3s.6-.1.8-.3l1.4-1.4c.4-.4.4-1.1 0-1.5l-8.7-8.3h19.8c.6 0 1-.5 1-1.1v-2c0-.6-.4-1.1-1-1.1h-19.9l8.7-8.3c.2-.2.3-.5.3-.8s-.1-.6-.3-.8l-1.4-1.4c-.2-.2-.5-.3-.7-.3-.3 0-.6.1-.8.3l-12.6 12.6c-.2.2-.3.5-.3.7 0 .3.1.6.3.8z"/><g fill="#fff"><path d="m.6 16.1 12.6 12.6c.4.4.9.6 1.4.6.5 0 1.1-.2 1.4-.6l1.4-1.4c.4-.4.6-.9.6-1.5 0-.5-.2-1.1-.6-1.5l-6.9-6.6h17.5c1.1 0 2-.9 2-2v-2.1c0-1.1-.9-2-2-2h-17.4l6.9-6.6c.4-.4.6-.9.6-1.5 0-.5-.2-1.1-.6-1.5l-1.4-1.5c-.4-.3-.9-.5-1.4-.5-.5 0-1.1.2-1.5.6l-12.6 12.6c-.8.8-.8 2 0 2.9 0-.1 0 0 0 0zm.4-2.6 12.6-12.6c.6-.6 1.6-.6 2.2 0l1.4 1.4c.6.6.6 1.6 0 2.2l-7.8 7.5h18.6c.9 0 1.5.7 1.5 1.6v2c0 .9-.7 1.6-1.5 1.6h-18.6l7.8 7.4c.6.6.6 1.6 0 2.2l-1.4 1.4c-.6.6-1.6.6-2.2 0l-12.6-12.5c-.7-.6-.7-1.6 0-2.2-.1 0-.1 0 0 0z"/><path d="m1 15.7 12.6 12.6c.6.6 1.6.6 2.2 0l1.4-1.4c.6-.6.6-1.6 0-2.2l-7.8-7.4h18.6c.9 0 1.5-.7 1.5-1.6v-2c0-.9-.7-1.6-1.5-1.6h-18.6l7.8-7.4c.6-.6.6-1.6 0-2.2l-1.5-1.5c-.6-.6-1.6-.6-2.2 0l-12.5 12.5c-.7.6-.7 1.6 0 2.2-.1 0-.1 0 0 0zm.3-1.8 12.6-12.6c.2-.2.5-.3.8-.3.3 0 .6.1.8.3l1.4 1.4c.2.2.3.5.3.8s-.1.6-.3.8l-8.7 8.3h19.8c.6 0 1 .5 1 1.1v2c0 .6-.4 1.1-1 1.1h-19.9l8.7 8.3c.4.4.4 1.1 0 1.5l-1.4 1.4c-.2.2-.5.3-.8.3s-.6-.1-.8-.3l-12.5-12.6c-.2-.2-.3-.5-.3-.8 0-.2.1-.5.3-.7z"/></g></svg>

<?xml version="1.0" encoding="utf-8"?>
<!-- Generator: Adobe Illustrator 25.3.1, SVG Export Plug-In . SVG Version: 6.00 Build 0)  -->
<svg version="1.1" id="Livello_1" xmlns="http://www.w3.org/2000/svg" xmlns:xlink="http://www.w3.org/1999/xlink" x="0px" y="0px"
	 viewBox="0 0 30 29.3" style="enable-background:new 0 0 30 29.3;" xml:space="preserve">
<style type="text/css">
	.st0{fill:#FFFFFF;}
</style>
<path d="M13.9,28c0.2,0.2,0.5,0.3,0.8,0.3c0.3,0,0.6-0.1,0.8-0.3l1.4-1.4c0.4-0.4,0.4-1.1,0-1.5c0,0,0,0,0,0l-8.7-8.3H28
	c0.6,0,1-0.5,1-1.1v-2c0-0.6-0.4-1.1-1-1.1H8.1l8.7-8.3c0.2-0.2,0.3-0.5,0.3-0.8c0-0.3-0.1-0.6-0.3-0.8l-1.4-1.4
	C15.2,1.1,14.9,1,14.7,1l0,0c-0.3,0-0.6,0.1-0.8,0.3L1.3,13.9C1.1,14.1,1,14.4,1,14.6c0,0.3,0.1,0.6,0.3,0.8L13.9,28z"/>
<path class="st0" d="M0.6,16.1l12.6,12.6c0.4,0.4,0.9,0.6,1.4,0.6l0,0c0.5,0,1.1-0.2,1.4-0.6l1.4-1.4c0.4-0.4,0.6-0.9,0.6-1.5
	c0-0.5-0.2-1.1-0.6-1.5l-6.9-6.6H28c1.1,0,2-0.9,2-2v-2.1c0-1.1-0.9-2-2-2H10.6L17.5,5c0.4-0.4,0.6-0.9,0.6-1.5
	c0-0.5-0.2-1.1-0.6-1.5l-1.4-1.5C15.7,0.2,15.2,0,14.7,0l0,0c-0.5,0-1.1,0.2-1.5,0.6L0.6,13.2C-0.2,14-0.2,15.2,0.6,16.1
	C0.6,16,0.6,16.1,0.6,16.1z M1,13.5L13.6,0.9c0.6-0.6,1.6-0.6,2.2,0c0,0,0,0,0,0l1.4,1.4c0.6,0.6,0.6,1.6,0,2.2c0,0,0,0,0,0L9.4,12
	H28c0.9,0,1.5,0.7,1.5,1.6c0,0,0,0,0,0v2c0,0.9-0.7,1.6-1.5,1.6c0,0,0,0,0,0H9.4l7.8,7.4c0.6,0.6,0.6,1.6,0,2.2c0,0,0,0,0,0
	l-1.4,1.4c-0.6,0.6-1.6,0.6-2.2,0c0,0,0,0,0,0L1,15.7C0.3,15.1,0.3,14.1,1,13.5C0.9,13.5,0.9,13.5,1,13.5z"/>
<path class="st0" d="M1,15.7l12.6,12.6c0.6,0.6,1.6,0.6,2.2,0c0,0,0,0,0,0l1.4-1.4c0.6-0.6,0.6-1.6,0-2.2c0,0,0,0,0,0l-7.8-7.4H28
	c0.9,0,1.5-0.7,1.5-1.6c0,0,0,0,0,0v-2c0-0.9-0.7-1.6-1.5-1.6c0,0,0,0,0,0H9.4l7.8-7.4c0.6-0.6,0.6-1.6,0-2.2c0,0,0,0,0,0L15.7,1
	c-0.6-0.6-1.6-0.6-2.2,0c0,0,0,0,0,0L1,13.5C0.3,14.1,0.3,15.1,1,15.7C0.9,15.7,0.9,15.7,1,15.7z M1.3,13.9L13.9,1.3
	C14.1,1.1,14.4,1,14.7,1l0,0c0.3,0,0.6,0.1,0.8,0.3l1.4,1.4c0.2,0.2,0.3,0.5,0.3,0.8c0,0.3-0.1,0.6-0.3,0.8l-8.7,8.3H28
	c0.6,0,1,0.5,1,1.1v2c0,0.6-0.4,1.1-1,1.1H8.1l8.7,8.3c0.4,0.4,0.4,1.1,0,1.5c0,0,0,0,0,0L15.4,28c-0.2,0.2-0.5,0.3-0.8,0.3
	c-0.3,0-0.6-0.1-0.8-0.3L1.3,15.4C1.1,15.2,1,14.9,1,14.6C1,14.4,1.1,14.1,1.3,13.9z"/>
</svg>
